svgs/sharp-regular/inbox-out.svg

<svg xmlns="http://www.w3.org/2000/svg" viewBox="0 0 512 512"><!--! Font Awesome Pro 6.6.0 by @fontawesome - https://fontawesome.com License - https://fontawesome.com/license (Commercial License) Copyright 2024 Fonticons, Inc. --><path d="M280 288l0 24-48 0 0-24 0-194.9-63 63-17 17-33.9-33.9 17-17 104-104 17-17 17 17 104 104 17 17L360 173.1l-17-17-63-63L280 288zM160 320l32 64 128 0 32-64 112 0 48 0 0 48 0 96 0 48-48 0L48 512 0 512l0-48 0-96 0-48 48 0 112 0zm202.9 85.5L349.7 432 320 432l-128 0-29.7 0-13.3-26.5L130.3 368 48 368l0 96 416 0 0-96-82.3 0-18.7 37.5z"/></svg>

<svg xmlns="http://www.w3.org/2000/svg" viewBox="0 0 512 512"><!--! Font Awesome Pro 6.4.2 by @fontawesome - https://fontawesome.com License - https://fontawesome.com/license (Commercial License) Copyright 2023 Fonticons, Inc. --><path d="M280 288v24H232V288 93.1l-63 63-17 17-33.9-33.9 17-17 104-104 17-17 17 17 104 104 17 17L360 173.1l-17-17-63-63V288zM160 320l32 64H320l32-64H464h48v48 96 48H464 48 0V464 368 320H48 160zm202.9 85.5L349.7 432H320 192 162.3l-13.3-26.5L130.3 368H48v96H464V368H381.7l-18.7 37.5z"/></svg>
